src/assets/images/DxDaoProductBanner.svg

<svg width="458" height="54" viewBox="0 0 458 54" fill="none" xmlns="http://www.w3.org/2000/svg">
<path d="M0 0H458V50C458 52.2091 456.209 54 454 54H4C1.79086 54 0 52.2091 0 50V0Z" fill="url(#paint0_linear_433_5473)"/>
<g clip-path="url(#clip0_433_5473)">
<path fill-rule="evenodd" clip-rule="evenodd" d="M26 -94C-41.9308 -94 -97 -39.8263 -97 27C-97 93.8263 -41.9308 148 26 148C93.9308 148 149 93.8263 149 27C149 -39.8263 93.9308 -94 26 -94ZM-36.6176 88.6005C-71.2062 54.581 -71.2062 -0.580998 -36.6176 -34.6055C-10.1376 -60.6543 28.9366 -66.7584 61.3202 -52.918L44.422 -36.2975C21.8171 -42.6363 -3.51253 -37.0562 -21.3139 -19.5473C-44.8371 3.59658 -47.1834 39.6825 -28.3527 65.4068L-3.21987 40.6907L12.0839 55.7489L-28.5041 95.673C-31.3196 93.5068 -34.0292 91.151 -36.6176 88.6005ZM26 42.0582L10.6963 27L26 11.9418L41.3088 27L26 42.0582ZM55.2249 40.6907L70.5337 55.7489L55.2249 70.8072L39.9162 55.7489L55.2249 40.6907ZM-3.21987 13.3093L-18.5287 -1.74892L-3.21987 -16.8072L12.0839 -1.74892L-3.21987 13.3093ZM88.6227 88.6005C62.1426 114.649 23.0684 120.753 -9.31513 106.918L7.58306 90.2925C30.188 96.6363 55.5176 91.0512 73.3139 73.5423C96.8422 50.3984 99.1885 14.3125 80.3527 -11.4117L55.2249 13.3093L39.9162 -1.74892L80.5041 -41.678C83.3196 -39.5118 86.0342 -37.151 88.6227 -34.6055C123.206 -0.580998 123.206 54.581 88.6227 88.6005Z" fill="white" fill-opacity="0.08"/>
<g clip-path="url(#clip1_433_5473)">
<path d="M28.2583 29.696H29.6183L27.1143 24.096H25.8343L23.3383 29.696H24.6663L25.1623 28.496H27.7623L28.2583 29.696ZM25.5783 27.512L26.4663 25.368L27.3543 27.512H25.5783Z" fill="white"/>
<path d="M36.4649 29.696H39.0089C40.8409 29.696 42.0969 28.592 42.0969 26.896C42.0969 25.2 40.8409 24.096 39.0089 24.096H36.4649V29.696ZM37.7609 28.632V25.16H38.9449C40.0569 25.16 40.7849 25.824 40.7849 26.896C40.7849 27.968 40.0569 28.632 38.9449 28.632H37.7609Z" fill="white"/>
<path d="M49.8951 29.696L47.8071 26.8L49.7591 24.096H48.3591L47.0951 25.912L45.8071 24.096H44.3351L46.3031 26.848L44.2311 29.696H45.7191L47.0471 27.752L48.3991 29.696H49.8951Z" fill="white"/>
<path d="M52.4024 29.696H54.9464C56.7784 29.696 58.0344 28.592 58.0344 26.896C58.0344 25.2 56.7784 24.096 54.9464 24.096H52.4024V29.696ZM53.6984 28.632V25.16H54.8824C55.9944 25.16 56.7224 25.824 56.7224 26.896C56.7224 27.968 55.9944 28.632 54.8824 28.632H53.6984Z" fill="white"/>
<path d="M65.1176 29.696H66.4776L63.9736 24.096H62.6936L60.1976 29.696H61.5256L62.0216 28.496H64.6216L65.1176 29.696ZM62.4376 27.512L63.3256 25.368L64.2136 27.512H62.4376Z" fill="white"/>
<path d="M71.6925 29.792C73.4525 29.792 74.7565 28.568 74.7565 26.896C74.7565 25.224 73.4525 24 71.6925 24C69.9245 24 68.6285 25.232 68.6285 26.896C68.6285 28.56 69.9245 29.792 71.6925 29.792ZM71.6925 28.688C70.6925 28.688 69.9405 27.96 69.9405 26.896C69.9405 25.832 70.6925 25.104 71.6925 25.104C72.6925 25.104 73.4445 25.832 73.4445 26.896C73.4445 27.96 72.6925 28.688 71.6925 28.688Z" fill="white"/>
<path d="M84.4201 24.096H81.9961V29.696H83.2921V28.152H84.4201C85.9161 28.152 86.8521 27.376 86.8521 26.128C86.8521 24.872 85.9161 24.096 84.4201 24.096ZM84.3481 27.096H83.2921V25.152H84.3481C85.1401 25.152 85.5401 25.512 85.5401 26.128C85.5401 26.736 85.1401 27.096 84.3481 27.096Z" fill="white"/>
<path d="M94.7374 29.696L93.4814 27.896C94.2094 27.584 94.6334 26.968 94.6334 26.128C94.6334 24.872 93.6974 24.096 92.2014 24.096H89.7774V29.696H91.0734V28.136H92.2654L93.3454 29.696H94.7374ZM93.3214 26.128C93.3214 26.736 92.9214 27.104 92.1294 27.104H91.0734V25.152H92.1294C92.9214 25.152 93.3214 25.512 93.3214 26.128Z" fill="white"/>
<path d="M100.372 29.792C102.132 29.792 103.436 28.568 103.436 26.896C103.436 25.224 102.132 24 100.372 24C98.6042 24 97.3082 25.232 97.3082 26.896C97.3082 28.56 98.6042 29.792 100.372 29.792ZM100.372 28.688C99.3722 28.688 98.6202 27.96 98.6202 26.896C98.6202 25.832 99.3722 25.104 100.372 25.104C101.372 25.104 102.124 25.832 102.124 26.896C102.124 27.96 101.372 28.688 100.372 28.688Z" fill="white"/>
<path d="M106.41 29.696H108.954C110.786 29.696 112.042 28.592 112.042 26.896C112.042 25.2 110.786 24.096 108.954 24.096H106.41V29.696ZM107.706 28.632V25.16H108.89C110.002 25.16 110.73 25.824 110.73 26.896C110.73 27.968 110.002 28.632 108.89 28.632H107.706Z" fill="white"/>
<path d="M117.508 29.792C119.1 29.792 120.044 28.88 120.044 27.232V24.096H118.764V27.184C118.764 28.248 118.308 28.688 117.516 28.688C116.732 28.688 116.268 28.248 116.268 27.184V24.096H114.972V27.232C114.972 28.88 115.916 29.792 117.508 29.792Z" fill="white"/>
<path d="M126.004 29.792C126.98 29.792 127.788 29.44 128.316 28.792L127.484 28.024C127.108 28.464 126.636 28.688 126.076 28.688C125.028 28.688 124.284 27.952 124.284 26.896C124.284 25.84 125.028 25.104 126.076 25.104C126.636 25.104 127.108 25.328 127.484 25.76L128.316 24.992C127.788 24.352 126.98 24 126.012 24C124.268 24 122.972 25.208 122.972 26.896C122.972 28.584 124.268 29.792 126.004 29.792Z" fill="white"/>
<path d="M132.297 29.696H133.593V25.152H135.385V24.096H130.505V25.152H132.297V29.696Z" fill="white"/>
<path d="M370.772 29.696H373.22C375.036 29.696 376.276 28.576 376.276 26.896C376.276 25.216 375.036 24.096 373.22 24.096H370.772V29.696ZM371.812 28.816V24.976H373.172C374.42 24.976 375.228 25.736 375.228 26.896C375.228 28.056 374.42 28.816 373.172 28.816H371.812Z" fill="white"/>
<path d="M383.906 29.696L381.802 26.8L383.762 24.096H382.634L381.218 26.088L379.786 24.096H378.61L380.578 26.84L378.498 29.696H379.682L381.186 27.568L382.706 29.696H383.906Z" fill="white"/>
<path d="M386.537 29.696H388.985C390.801 29.696 392.041 28.576 392.041 26.896C392.041 25.216 390.801 24.096 388.985 24.096H386.537V29.696ZM387.577 28.816V24.976H388.937C390.185 24.976 390.993 25.736 390.993 26.896C390.993 28.056 390.185 28.816 388.937 28.816H387.577Z" fill="white"/>
<path d="M399.26 29.696H400.349L397.82 24.096H396.797L394.277 29.696H395.349L395.901 28.4H398.701L399.26 29.696ZM396.253 27.584L397.301 25.136L398.357 27.584H396.253Z" fill="white"/>
<path d="M405.599 29.776C407.335 29.776 408.615 28.56 408.615 26.896C408.615 25.232 407.335 24.016 405.599 24.016C403.863 24.016 402.583 25.24 402.583 26.896C402.583 28.552 403.863 29.776 405.599 29.776ZM405.599 28.864C404.471 28.864 403.631 28.04 403.631 26.896C403.631 25.752 404.471 24.928 405.599 24.928C406.727 24.928 407.567 25.752 407.567 26.896C407.567 28.04 406.727 28.864 405.599 28.864Z" fill="white"/>
<path d="M411.785 29.752C412.145 29.752 412.441 29.472 412.441 29.088C412.441 28.688 412.145 28.424 411.785 28.424C411.425 28.424 411.129 28.688 411.129 29.088C411.129 29.472 411.425 29.752 411.785 29.752Z" fill="white"/>
<path d="M416.554 28.824V27.28H419.258V26.424H416.554V24.968H419.602V24.096H415.514V29.696H419.714V28.824H416.554Z" fill="white"/>
<path d="M424.009 29.696H425.049V24.976H426.905V24.096H422.153V24.976H424.009V29.696Z" fill="white"/>
<path d="M433.622 24.096V26.408H430.726V24.096H429.686V29.696H430.726V27.296H433.622V29.696H434.662V24.096H433.622Z" fill="white"/>
</g>
</g>
<defs>
<linearGradient id="paint0_linear_433_5473" x1="118.978" y1="-33.75" x2="184.29" y2="137.579" gradientUnits="userSpaceOnUse">
<stop stop-color="#2E17F2"/>
<stop offset="1" stop-color="#4F1970"/>
</linearGradient>
<clipPath id="clip0_433_5473">
<rect width="458" height="54" fill="white"/>
</clipPath>
<clipPath id="clip1_433_5473">
<rect width="412" height="5.792" fill="white" transform="translate(23 24)"/>
</clipPath>
</defs>
</svg>

<svg xmlns="http://www.w3.org/2000/svg" width="458" height="54" fill="none">
  <path fill="url(#a)" d="M0 0h458v50a4 4 0 0 1-4 4H4a4 4 0 0 1-4-4V0Z"/>
  <g fill="#fff" clip-path="url(#b)">
    <path fill-opacity=".08" fill-rule="evenodd" d="M26-94C-41.93-94-97-39.826-97 27s55.07 121 123 121S149 93.826 149 27 93.93-94 26-94ZM-36.618 88.6a86.115 86.115 0 0 1 0-123.206c26.48-26.048 65.555-32.152 97.938-18.312l-16.898 16.62c-22.605-6.338-47.935-.758-65.736 16.75-23.523 23.145-25.87 59.23-7.039 84.955L-3.22 40.69l15.304 15.058-40.588 39.924a88.061 88.061 0 0 1-8.114-7.073ZM26 42.059 10.696 27 26 11.942 41.309 27 26 42.058Zm29.225-1.367 15.309 15.058-15.31 15.058L39.917 55.75 55.225 40.69ZM-3.22 13.309-18.529-1.749l15.31-15.058L12.083-1.75-3.22 13.31ZM88.623 88.6c-26.48 26.049-65.555 32.153-97.938 18.318L7.583 90.292c22.605 6.344 47.935.76 65.73-16.75 23.53-23.144 25.876-59.23 7.04-84.954L55.225 13.31 39.916-1.749l40.588-39.929a88.894 88.894 0 0 1 8.119 7.072 86.124 86.124 0 0 1 0 123.206Z" clip-rule="evenodd"/>
    <g clip-path="url(#c)">
      <path d="M28.258 29.696h1.36l-2.504-5.6h-1.28l-2.496 5.6h1.328l.496-1.2h2.6l.496 1.2Zm-2.68-2.184.888-2.144.888 2.144h-1.776ZM36.465 29.696h2.544c1.832 0 3.088-1.104 3.088-2.8 0-1.696-1.256-2.8-3.088-2.8h-2.544v5.6Zm1.296-1.064V25.16h1.184c1.112 0 1.84.664 1.84 1.736s-.728 1.736-1.84 1.736H37.76ZM49.895 29.696 47.807 26.8l1.952-2.704h-1.4l-1.264 1.816-1.288-1.816h-1.472l1.968 2.752-2.072 2.848h1.488l1.328-1.944 1.352 1.944h1.496ZM52.402 29.696h2.544c1.832 0 3.088-1.104 3.088-2.8 0-1.696-1.256-2.8-3.088-2.8h-2.544v5.6Zm1.296-1.064V25.16h1.184c1.112 0 1.84.664 1.84 1.736s-.728 1.736-1.84 1.736h-1.184ZM65.118 29.696h1.36l-2.504-5.6h-1.28l-2.496 5.6h1.328l.496-1.2h2.6l.496 1.2Zm-2.68-2.184.888-2.144.888 2.144h-1.776ZM71.692 29.792c1.76 0 3.065-1.224 3.065-2.896S73.451 24 71.692 24c-1.767 0-3.063 1.232-3.063 2.896s1.295 2.896 3.063 2.896Zm0-1.104c-1 0-1.751-.728-1.751-1.792s.751-1.792 1.751-1.792c1 0 1.753.728 1.753 1.792s-.752 1.792-1.752 1.792ZM84.42 24.096h-2.424v5.6h1.296v-1.544h1.128c1.496 0 2.432-.776 2.432-2.024 0-1.256-.936-2.032-2.432-2.032Zm-.072 3h-1.056v-1.944h1.056c.792 0 1.192.36 1.192.976 0 .608-.4.968-1.192.968ZM94.737 29.696l-1.256-1.8c.728-.312 1.152-.928 1.152-1.768 0-1.256-.936-2.032-2.432-2.032h-2.424v5.6h1.296v-1.56h1.192l1.08 1.56h1.392Zm-1.416-3.568c0 .608-.4.976-1.192.976h-1.056v-1.952h1.056c.792 0 1.192.36 1.192.976ZM100.372 29.792c1.76 0 3.064-1.224 3.064-2.896S102.132 24 100.372 24c-1.768 0-3.064 1.232-3.064 2.896s1.296 2.896 3.064 2.896Zm0-1.104c-1 0-1.752-.728-1.752-1.792s.752-1.792 1.752-1.792 1.752.728 1.752 1.792-.752 1.792-1.752 1.792ZM106.41 29.696h2.544c1.832 0 3.088-1.104 3.088-2.8 0-1.696-1.256-2.8-3.088-2.8h-2.544v5.6Zm1.296-1.064V25.16h1.184c1.112 0 1.84.664 1.84 1.736s-.728 1.736-1.84 1.736h-1.184ZM117.508 29.792c1.592 0 2.536-.912 2.536-2.56v-3.136h-1.28v3.088c0 1.064-.456 1.504-1.248 1.504-.784 0-1.248-.44-1.248-1.504v-3.088h-1.296v3.136c0 1.648.944 2.56 2.536 2.56ZM126.004 29.792c.976 0 1.784-.352 2.312-1l-.832-.768c-.376.44-.848.664-1.408.664-1.048 0-1.792-.736-1.792-1.792s.744-1.792 1.792-1.792c.56 0 1.032.224 1.408.656l.832-.768c-.528-.64-1.336-.992-2.304-.992-1.744 0-3.04 1.208-3.04 2.896s1.296 2.896 3.032 2.896ZM132.297 29.696h1.296v-4.544h1.792v-1.056h-4.88v1.056h1.792v4.544ZM370.772 29.696h2.448c1.816 0 3.056-1.12 3.056-2.8 0-1.68-1.24-2.8-3.056-2.8h-2.448v5.6Zm1.04-.88v-3.84h1.36c1.248 0 2.056.76 2.056 1.92s-.808 1.92-2.056 1.92h-1.36ZM383.906 29.696l-2.104-2.896 1.96-2.704h-1.128l-1.416 1.992-1.432-1.992h-1.176l1.968 2.744-2.08 2.856h1.184l1.504-2.128 1.52 2.128h1.2ZM386.537 29.696h2.448c1.816 0 3.056-1.12 3.056-2.8 0-1.68-1.24-2.8-3.056-2.8h-2.448v5.6Zm1.04-.88v-3.84h1.36c1.248 0 2.056.76 2.056 1.92s-.808 1.92-2.056 1.92h-1.36ZM399.26 29.696h1.089l-2.529-5.6h-1.023l-2.52 5.6h1.072l.552-1.296h2.8l.559 1.296Zm-3.007-2.112 1.048-2.448 1.056 2.448h-2.104ZM405.599 29.776c1.736 0 3.016-1.216 3.016-2.88s-1.28-2.88-3.016-2.88-3.016 1.224-3.016 2.88 1.28 2.88 3.016 2.88Zm0-.912c-1.128 0-1.968-.824-1.968-1.968 0-1.144.84-1.968 1.968-1.968 1.128 0 1.968.824 1.968 1.968 0 1.144-.84 1.968-1.968 1.968ZM411.785 29.752a.65.65 0 0 0 .656-.664c0-.4-.296-.664-.656-.664a.641.641 0 0 0-.656.664.65.65 0 0 0 .656.664ZM416.554 28.824V27.28h2.704v-.856h-2.704v-1.456h3.048v-.872h-4.088v5.6h4.2v-.872h-3.16ZM424.009 29.696h1.04v-4.72h1.856v-.88h-4.752v.88h1.856v4.72ZM433.622 24.096v2.312h-2.896v-2.312h-1.04v5.6h1.04v-2.4h2.896v2.4h1.04v-5.6h-1.04Z"/>
    </g>
  </g>
  <defs>
    <clipPath id="b">
      <path fill="#fff" d="M0 0h458v54H0z"/>
    </clipPath>
    <clipPath id="c">
      <path fill="#fff" d="M0 0h412v5.792H0z" transform="translate(23 24)"/>
    </clipPath>
    <linearGradient id="a" x1="118.978" x2="184.29" y1="-33.75" y2="137.579" gradientUnits="userSpaceOnUse">
      <stop stop-color="#2E17F2"/>
      <stop offset="1" stop-color="#4F1970"/>
    </linearGradient>
  </defs>
</svg>
